html/dist/img/logo.svg

<svg width="35" height="47" viewBox="0 0 35 47" fill="none" xmlns="http://www.w3.org/2000/svg">
<path d="M19.0237 0.898438C19.3681 0.957326 19.7244 1.00444 20.0687 1.06333C22.8831 1.54622 25.4244 2.65333 27.6806 4.39644C30.4712 6.55177 32.4187 9.31955 33.5112 12.6527C33.9031 13.8422 34.1525 15.0671 34.2475 16.3155C34.6156 20.744 33.44 24.7367 30.7206 28.2582C29.2837 30.1309 27.4906 31.6267 25.4125 32.7573C25.2344 32.8515 25.1156 32.9811 25.0325 33.1578C22.99 37.3978 20.9356 41.6495 18.8812 45.8895C18.8456 45.9602 18.81 46.0309 18.7387 46.0898C18.7387 40.4953 18.7387 34.8891 18.7387 29.2829C19.0712 29.2122 19.4037 29.1651 19.7244 29.0827C24.2131 28.0933 27.7162 24.5129 28.595 20.0138C29.7944 13.8658 25.8519 7.89444 19.7006 6.53999C19.4394 6.50466 19.1662 6.45755 18.8931 6.42222C18.7744 6.41044 18.715 6.35155 18.7269 6.23377C18.7269 6.1631 18.7269 6.10422 18.7269 6.03355C18.7269 4.41999 18.7269 2.79466 18.7269 1.1811C18.7269 1.08688 18.715 0.99266 18.715 0.898438C18.81 0.898438 18.9169 0.898438 19.0237 0.898438Z" fill="#E11F25"/>
<path d="M15.5919 0.898438C15.5919 1.99377 15.5919 3.0891 15.5919 4.18444C15.5919 4.83222 15.5919 5.47999 15.5919 6.12777C15.5919 6.38688 15.5919 6.3751 15.3544 6.42222C13.11 6.78733 11.1269 7.70599 9.42879 9.21355C7.43379 10.992 6.16316 13.1827 5.70004 15.8091C5.10629 19.2129 5.87816 22.3104 8.02754 25.0193C9.83254 27.3042 12.2194 28.694 15.0932 29.2358C15.2475 29.2593 15.4019 29.2829 15.5682 29.3182C15.5682 31.132 15.5682 32.934 15.5682 34.7596C15.4375 34.7596 15.3188 34.7713 15.2 34.7596C11.59 34.3238 8.41941 32.934 5.72379 30.5195C2.76691 27.8813 0.950036 24.6071 0.261286 20.7322C0.0356608 19.4955 -0.0355892 18.2471 0.0356608 16.9987C0.249411 13.2651 1.53191 9.93199 3.93066 7.04644C6.37691 4.10199 9.50004 2.18222 13.2407 1.29888C13.8938 1.14577 14.5707 1.06333 15.2357 0.957326C15.2832 0.945549 15.3307 0.933771 15.3782 0.910215C15.4494 0.898437 15.5207 0.898438 15.5919 0.898438Z" fill="#7D7D7D"/>
</svg>

<svg width="35" height="47" viewBox="0 0 35 47" fill="none" xmlns="http://www.w3.org/2000/svg"><path d="M19.024.898c.344.06.7.106 1.045.165a16.958 16.958 0 017.612 3.333c2.79 2.156 4.738 4.924 5.83 8.257.392 1.19.642 2.414.736 3.662.369 4.429-.807 8.422-3.526 11.943-1.437 1.873-3.23 3.369-5.308 4.5a.832.832 0 00-.38.4c-2.043 4.24-4.097 8.492-6.152 12.731a.567.567 0 01-.142.2V29.284c.332-.07.665-.118.985-.2 4.49-.99 7.992-4.57 8.871-9.07 1.2-6.147-2.743-12.119-8.894-13.473-.262-.035-.535-.082-.808-.118-.119-.012-.178-.07-.166-.188V1.18c0-.094-.012-.188-.012-.283h.309z" fill="#E11F25"/><path d="M15.592.898v5.23c0 .259 0 .247-.238.294-2.244.365-4.227 1.284-5.925 2.792-1.995 1.778-3.266 3.969-3.729 6.595-.594 3.404.178 6.501 2.328 9.21 1.805 2.285 4.191 3.675 7.065 4.217.155.023.309.047.475.082v5.442c-.13 0-.25.011-.368 0-3.61-.436-6.78-1.826-9.476-4.24C2.767 27.88.95 24.607.26 20.732A15.79 15.79 0 01.036 17c.213-3.734 1.496-7.067 3.895-9.953C6.377 4.102 9.5 2.182 13.24 1.3c.653-.153 1.33-.236 1.995-.342a.673.673 0 00.142-.047c.071-.012.143-.012.214-.012z" fill="#7D7D7D"/></svg>
